lock-off.svg

<svg fill="currentColor" viewBox="0 0 24 24"><path d="M9 5.82 7.36 4.16A4.99 4.99 0 0 1 12 1c2.76 0 5 2.24 5 5v2h1a2 2 0 0 1 2 2v6.8L11.2 8H15V6c0-1.66-1.34-3-3-3-1.59 0-2.89 1.25-3 2.82m13.11 15.64-1.27 1.27-1.38-1.38c-.36.4-.88.65-1.46.65H6c-1.11 0-2-.89-2-2V10a2 2 0 0 1 2-2h.11l-5-5 1.28-1.27zm-8.26-5.72-2.59-2.59C10.5 13.44 10 14.16 10 15a2 2 0 0 0 2 2c.84 0 1.56-.5 1.85-1.26"/></svg>

<svg  viewBox="0 0 24 24" fill="currentColor"><path  d="M9 5.82L7.36 4.16C8.09 2.31 9.89 1 12 1C14.76 1 17 3.24 17 6V8H18C19.11 8 20 8.9 20 10V16.8L11.2 8H15V6C15 4.34 13.66 3 12 3C10.41 3 9.11 4.25 9 5.82M22.11 21.46L20.84 22.73L19.46 21.35C19.1 21.75 18.58 22 18 22H6C4.89 22 4 21.11 4 20V10C4 8.89 4.9 8 6 8H6.11L1.11 3L2.39 1.73L22.11 21.46M13.85 15.74L11.26 13.15C10.5 13.44 10 14.16 10 15C10 16.11 10.9 17 12 17C12.84 17 13.56 16.5 13.85 15.74Z"/></svg>
